X:1
T: Riddrie
C:
R:Strathspey
Q: 128
K:A
M:4/4
L:1/16
|:e3d c3A df3 f4|e3d c3A FB3 GE3|e3d c3A df3 f4|e2fg a3c B4 A4|
e3d c3A df3 f4|e3d c3A FB3 GE3|e3d c3A df3 f4|e2fg a3c B4 A4|
e3d c3a fd3 d4|f3e ^d3b ge3 e4|e3d c3a ((3f2e2d2) ((3c2B2A2) |((3G2A2B2) E3B ((3A2f2e2) ((3d2c2B2) |
e3d c3a fd3 d4|f3e ^d3b ge3 e4|e3d c3a ((3f2e2d2) ((3c2B2A2) |((3G2A2B2) E3d cA3 A4:|
